icons/registered-line.svg

<svg xmlns="http://www.w3.org/2000/svg" width="24" height="24" fill="none"><g clip-path="url(#a)"><g><path fill="#121212" d="M12 2C17.523 2 22 6.477 22 12C22 17.523 17.523 22 12 22C6.477 22 2 17.523 2 12C2 6.477 6.477 2 12 2ZM12 4C9.87827 4 7.84344 4.84285 6.34315 6.34315C4.84285 7.84344 4 9.87827 4 12C4 14.1217 4.84285 16.1566 6.34315 17.6569C7.84344 19.1571 9.87827 20 12 20C14.1217 20 16.1566 19.1571 17.6569 17.6569C19.1571 16.1566 20 14.1217 20 12C20 9.87827 19.1571 7.84344 17.6569 6.34315C16.1566 4.84285 14.1217 4 12 4ZM12.5 7C13.2636 6.99985 14.0064 7.24945 14.6149 7.71073C15.2235 8.17202 15.6645 8.81968 15.8707 9.55495C16.0769 10.2902 16.0369 11.0727 15.757 11.7832C15.477 12.4937 14.9724 13.0931 14.32 13.49L16.868 17H14.396L12.216 14H10V17H8V7H12.5ZM12.5 9H10V12H12.5C12.8729 12 13.2324 11.8611 13.5084 11.6104C13.7844 11.3597 13.9572 11.0152 13.993 10.644L14 10.5C14 10.1022 13.842 9.72064 13.5607 9.43934C13.2794 9.15804 12.8978 9 12.5 9Z"/></g></g><defs><clipPath id="a"><rect width="24" height="24" fill="white"/></clipPath></defs></svg>

<svg width="24" height="24" fill="none" xmlns="http://www.w3.org/2000/svg"><g clip-path="url(#a)"><path d="M12 2c5.523 0 10 4.477 10 10s-4.477 10-10 10S2 17.523 2 12 6.477 2 12 2Zm0 2a8 8 0 1 0 0 16 8 8 0 0 0 0-16Zm.5 3a3.5 3.5 0 0 1 1.82 6.49L16.868 17h-2.472l-2.18-3H10v3H8V7h4.5Zm0 2H10v3h2.5a1.5 1.5 0 0 0 1.493-1.356L14 10.5A1.5 1.5 0 0 0 12.5 9Z" /></g><defs><clipPath id="a"><path fill="#fff" d="M0 0h24v24H0z"/></clipPath></defs></svg>
